X: 401
T: King of Poland
P: Longways for as many as will
%R: jig
B: "The Compleat Country Dancing-Master" printed by John Walsh, London ca. 1740
S: 6: CCDM1 http://imslp.org/wiki/The_Compleat_Country_Dancing-Master_(Various) V.1 p.139 #184 (278)
S: 7: DMDfD http://digital.nls.uk/special-collections-of-printed-music/pageturner.cfm?id=89751228 p.14
Z: 2013 John Chambers <jc:trillian.mit.edu>
N: Repeats added to satisfy the "Each Strain ... play'd twice over" instructions.
N: The description uses "ist" rather than "Ist" as an abbreviation for "first".
M: 6/4
L: 1/4
K: Gdor
% - - - - - - - - - - - - - - - - - - - - - - - - -
|:\
B2G B2c | dcd G2A |\
Bcd f2d | dcd G3 :: g/a/ |\
b>ag ^f>e^f | g2G G2A |\
B>cd f2d | f2d c>BA |\
B>cd g2d | B>AG G2 :|
% - - - - - - - - - - - - - - - - - - - - - - - - -
%%center Note Each Strain is to be play'd twice over.
%%begintext align
%% First Man on his Womans side.
%%
%% First Man take Hands with the 2d Wo. and change places,
%% 1st Wo. and 2d Man doing the same at the same time,
%% cross over, all four Hands as before to your own and
%% chane Places, 1st Cu. lead up the Middle, and 2d Cu.
%% cast off, cross over all four, right and left 'till the 1st
%% Cu. comes into the 2d Cu. Place, 1st Cu. run the figure
%% through the 2d Cu. and so turn your own.
%% [CCDM1]
%%endtext
%%sep 1 1 500
%%begintext align
%% First Man on his womans side.
%%endtext
%%sep 1 1 300
%%begintext align
%%    First man take hands with the 2. wo. and change places, 1. wo. and 2. man doing the same at the
%% same time, cross over all four, hands as before, to your own, and change places; 1. cu. lead up the
%% middle, and 2. cu. cast off, cross over all four, right and left, till the 1. cu. comes into the 2. cu.
%% place, 1. cu. run the Figure through the 2. Cu. and so turn your own.
%% [DMDfD]
%%endtext
%%sep 1 1 300
%%begintext align
%% Note: Each Strain must be play'd twice over.
%%endtext
%%sep 1 8 500

%%sep 1 1 500
%%sep 1 1 500
